X: 42617
T: Whinny Hills Of Leitrim, The
R: slip jig
M: 9/8
K: Dmajor
FAA FAB FED|FAA FAB d2 A|FAA FAB FEd|1 fed edc B2 A:|2 fed edc B2 d||
f3 efe d2 e|f3 def g2 a|fed edc d2 A|BAF DFA B2 A|
f3 efe d2 e|f3 def gab|a3 edc d2 A|BAF DFA B2 A||

